X:1
T:Mairgeanin Suantac  "Drowsy Maggie; see Sleepy Maggie when she wakes"
M:C
L:1/8
Q:80
C:arr. Kent Hiestand
S:Reel
K:HP
| {g}B2{g}fBaB{g}fB | \
{g}B2{g}fBe{g}c{d}A{d}c | \
{g}B2{g}fBaB{g}fB |
{g}fe{g}fgae{g}c{d}A | \
{g}B2{g}fBaB{g}fB | \
{g}B2{g}fBe{g}c{d}A{d}c |
{g}B2{g}fBaB{g}fB | \
{g}fe{g}fgae{d}c{g}e :| \
{g}d2{g}fd{g}c2{g}ec |
{g}de{g}fgaf{a}ge | \
{g}d2{g}fd{g}c2{g}ec | \
{g}BA{d}Bc{g}dA{d}G{d}A |
{g}d2{g}fd{g}c2{g}ec | \
{g}de{g}fgaf{a}ge | \
af{a}ge{g}fd{g}ec |
{g}BA{d}Bc{g}dA{d}G{d}A :|
